X: 142
T:A bolboreta
M:6/8
L:1/8
Q:200
C:Magoia Bodega
R:Muiñeira
K:C
GAG |: E3 {G}ECD | E3 GAG | F3 {c}FDE | F3 {c}FGF | D3 {G}DB,C|
D3 FGF | D3 {G}DCB, |1 C3 GAG :|2 C3- CcB |: G3 FEF | G3- GcB|
G3 {c}GAG | F3- FBA| F3 {c}FDE | F3- FBA| F3 {c}FGF |1 E3- EcB :|2
K:Cmin
M:3/4
|: =E4 C2 | E4 C2| D4 =B,2| D4 =B,2| C4 E2 | G4 A2 | F4D2| =B,4C2 | D4 =
B,2 |1 C4 {G}C2 :|2 
C3 ||

